X:1
T:Lady Walpole's Reel [1]
M:2/4
L:1/8
R:Reel
S:White's Unique Collection (1896), No. 175
Z:AK/Fiddler's Companion
K:Bb
|: F |.B.d d/e/c/d/ | BFF (F/E/) | D/F/B/F/ E/D/E/G/ | F/G/F/E/ .D.B, |
(B/F/)(d/B/) (f/d/)(g/f/) | .b/.a/.g/.f/ .e/.d/.c/.B/ | A/c/f/c/ B/A/B/d/ | c/B/A/G/ F :|
|: f | f/b/f/d/ B/d/B/F/ | E/D/E/F/ G/F/E/D/ | .C(g/f/) e/d/c/B/ | A/B/c/A/ F (3f/g/a/ |
b/f/d/f/ g/e/c/e/ | d/f/B/d/ (c/A/).F | f/g/f/e/ d/c/B/A/ | B[DB][DB] :|

